X:1
T:Title
%%score { ( 1 3 ) | ( 2 4 ) }
L:1/8
Q:1/4=212
M:2/2
K:G
V:1 treble nm="Grand Piano"
V:3 treble 
V:2 bass 
V:4 bass 
V:1
 B8 | B4 B4 | B4 [Dd]4 | [Ec]4 [DB]4 | B8 | A4 A4 | A4 A4 | z4 G4 | F8 | A8 | A4 [EA]4 | [FA]4 c4 | %12
w: James~Mountain||||||||||||
 B4 A4 | [DA]8 | [G,DG]4 [G,^DG]4 | [G,EG]4 [G,DG]4 | z4 F4 | [G,B,G]8 |] %18
w: ||||||
V:2
 [G,D]8 | [G,B,D]4 [F,A,^D]4 | [E,G,E]4 [B,,G,]4 | [C,G,]4 [G,,G,]4 | [D,G,D]8 | %5
 [D,F,D]4 [D,F,D]4 | [D,E,^C]4 [D,F,D]4 | [G,D]4 [B,D]2 G,2 | [D,A,D]8 | [D,F,D]8 | %10
 [D,F,D]4 [D,G,]4 | [D,A,]4 [F,A,D]4 | [G,D]4 [D,F,D]4 | [C,F,]8 | B,,4 B,,4 | C,4 B,,4 | %16
 A,,4 z2 A,2 | G,,8 |] %18
V:3
 x8 | x8 | x8 | x8 | x8 | x8 | x8 | B4 z2 ^C2 | x8 | x8 | x8 | x8 | x8 | x8 | x8 | x8 | %16
 [CE]4 [B,D]2 C2 | x8 |] %18
V:4
 x8 | x8 | x8 | x8 | x8 | x8 | x8 | z4 E,4 | x8 | x8 | x8 | x8 | x8 | x8 | x8 | x8 | z4 D,4 | x8 |] %18

